X:1
T:Let Your Garments Be Always White
T:Let Your Garments Be Always White
T:G. K. A.
T:Emma F. Fisk, 1886
T:Public Domain Courtesy of the Cyber Hymnal™
T:Public Domain Courtesy of the Cyber Hymnal™
C:G. K. A.
Z:Public Domain
Z:Courtesy of the Cyber Hymnal™
%%score ( 1 2 ) ( 3 4 )
L:1/8
Q:1/4=80
M:4/8
K:Eb
V:1 treble 
V:2 treble 
V:3 bass 
V:4 bass 
V:1
 E/[EF]/ | [EG][EG][EG][EA] | [EG] [DF]2 [DF]/[EG]/ | [FA][FA][FA][GB] | [EG]3 [EG]/[FA]/ | %5
w: 1.~Are your|gar- ments al- ways|spot- less, Are they|washed in Je- sus’|blood? Do they|
w: 2.~Let no|an- ger soil their|beau- ty, Let no|bit- ter- ness re-|main; Oh, be|
w: 3.~Let all|pride and love of|glo- ry, Gold and|fame be washed a-|way; Trem- bling|
w: 4.~Oh, then|ev- er keep your|gar- ments Whit- er|than the driv- en|snow, Wear the|
 [GB][GB][GB][Ge] | [Ge] [Fd]2 [FB]/[Gc]/ | [Fd][Fd][Fd][Ec] | [DB]3 [DB]/[DB]/ | %9
w: al- ways keep the|cleans- ing Of the|pu- ri- fy- ing|flood? Do they|
w: sure no trace of|en- vy Leaves up-|on your robes its|stain. Let no|
w: heart, your fears and|doubt- ings ’Neath the|pool of cleans- ing|lay. Ne- ver|
w: roy- al robes of|Hea- ven While you|tar- ry here be-|low; That thro’|
 [Ac][GB][FA][=EG] | [GB] [FA]2 [FA]/[FA]/ | [GB][FA][EG][DF] | [EG]3 [EG]/[EA]/ | [EB]E[Ge][Ec] | %14
w: ne- ver show the|soil- ing Of your|sins up- on their|white? Will they|al- ways bear the|
w: love of world- ly|plea- sure Cast un-|ho- ly sha- dows|there, Ful- ly|cleanse them from the|
w: af- ter try to|find them, They are|lost be- neath the|tide; Christ would|have you all your|
w: yon- der pear- ly|por- tals Joy- ful|en- trance you may|win, Clothed in|rai- ment cleansed for-|
 [Ed] [Ec]2 E/[EF]/ | [EG][FA][EG][DF] | E3 ||"^Refrain" [GB]>[Ac] | [GB]2 [EG][GB] | [Ge]2 [GB]2 | %20
w: search- ing Of the|Ho- ly Spir- it’s|light?||||
w: mil- dews Of anx-|i- e- ty and|care.|Let your|gar- ments be|spot- less,|
w: shrink- ing In this|pre- cious foun- tain|hide.||||
w: ev- er From the|fin- ger- prints of|sin.||||
 [Ac][EB][DA][EG] | [DF]3 [EG]/[FA]/ | [EB]E[Ge][GB] | [Bd] [Ac]2 [Ac]/[Ac]/ | [GB][GB][Ac][Ad] | %25
w: |||||
w: Al- ways pure and|bright; Thro’ the|pre- cious blood of|Je- sus Keep them|ev- er clean and|
w: |||||
w: |||||
 [Ge]3 |] %26
w: |
w: white.|
w: |
w: |
V:2
 E/ x/ | x4 | x4 | x4 | x4 | x4 | x4 | x4 | x4 | x4 | x4 | x4 | x4 | x E x2 | x3 E/ x/ | x4 | E3 || %17
 x2 | x4 | x4 | x4 | x4 | x E x2 | x4 | x4 | x3 |] %26
V:3
 [E,G,]/[E,A,]/ | [E,B,][E,B,][E,B,][E,C] | [B,,B,] [B,,B,]2 [B,,B,]/[B,,B,]/ | %3
w: ~ ~|~ ~ ~ ~|~ ~ ~ ~|
 [B,,B,][B,,B,][B,,B,][B,,B,] | [E,B,]3 [E,B,]/[E,B,]/ | [E,B,][E,E][E,E][G,B,] | %6
w: ~ ~ ~ ~|~ ~ ~|~ ~ ~ ~|
 B, B,2 [D,B,]/[E,B,]/ | [F,B,][F,B,][F,=A,][F,A,] | [B,,B,]3 [B,,B,]/[B,,B,]/ | %9
w: ~ ~ ~ ~|~ ~ ~ ~|~ ~ ~|
 [B,,B,][B,,B,][B,,B,][B,,B,] | [B,,B,] [B,,B,]2 [B,,B,]/[B,,B,]/ | [B,,B,][B,,B,][B,,B,][B,,B,] | %12
w: ~ ~ ~ ~|~ ~ ~ ~|~ ~ ~ ~|
 [E,B,]3 [E,B,]/[E,B,]/ | [E,G,][E,G,][E,B,][E,G,] | [A,,A,] [A,,A,]2 [=A,,C]/[A,,C]/ | %15
w: ~ ~ ~|~ ~ ~ ~|~ ~ ~ ~|
 [B,,B,][B,,B,][B,,B,][B,,B,] | [E,G,]3 || [E,E]>[E,E] | [E,E][E,E][E,B,][E,B,] | %19
w: ~ ~ ~ ~|~|~ ~|~ ~ then be|
 [E,B,][E,B,][E,E][E,E] | [A,E][G,B,][F,B,][E,B,] | [B,,B,]3 [E,B,]/[E,B,]/ | %22
w: ev- er spot- less|||
 [E,G,][E,G,][E,B,][E,E] | [A,E] [A,E]2 [A,E]/[A,E]/ | [B,E][B,E][B,D]B, | [E,B,]3 |] %26
w: ||||
V:4
 x | x4 | x4 | x4 | x4 | x4 | B, B,2 x | x4 | x4 | x4 | x4 | x4 | x4 | x4 | x4 | x4 | x3 || x2 | %18
 x4 | x4 | x4 | x4 | x4 | x4 | x3 B, | x3 |] %26

